X:446
T:Athole And Breadalbane Gathering #1, The
C:Joe Buchanan's Scottish Tome - Page 003.2
I:003 2
C:W. Fergusson
R:Pipe March
Z:Carl Allison
L:1/16
M:2/4
K:A
| A>B | "A" {B}c4 "E7"(c<e)d>B | "A"{d}c2A2 {B}A2(c<e) | "D"{fg}f2>e2 "A"c2(a>e) |"B7" {d}(c2B2) "E7"{Bc}B2(A>B) |
|"A"{d}c4 "E7"(c<e)d>B | {d}"A"c2A2 {B}A2(c<e) | "D"f2{g}a2 "A"e>fe>c | "E7"{Bd}B2A2 "A"{A}A2 :|
c>d |"A" e2>f2 {ef}e2c2 | {b}a2>e2 "D"f>ga>f | {ef}"A"e2(A>c) "F#m"e>fe>A | {d}"B7"(c2B2) "E7"{Bc}B2c>d |
|"A"e2>f2 {ef}e2c2 | {b}a2>e2 "D"f>ga>f | "F#m"{ef}e2(A>c) "E7"e>fe>c | {Bd}"D"B2A2 "A"{A}A2 :|
A>B | "A"{d}c4 c2e2 | "D"{fg}f2a>f "A"e>cA>B | "A"{ef}c2(A>c) "F#m"e>fA>B | "D"{d}c2B2 "E7"{Bc}B2A>B |
|"A"{d}c4 c2e2 | "D"{fg}f2a>f "A"e>cA>B |"F#m" {cd}c2(A>c) "E7"e>fe>c |  "D"{Bd}B2A2 "E7"{A}A2 :|
c>d | "A"{ef}e2(a>e) "D"f>ga>f | "A"{ef}e2(a>f) e>cA>B | "A"{d}c2(A>c) "F#m"e>fa>e | "B7"{d}c2B2 "E7"{Bc}B2(c>d) |
| "A"{df}e2(a>e) "D"f>ga>f | "A"{ef}e2(a>f) e>cA>B | "F#m"{d}c2(A>c) "E7"e>fe>c | "D"{Bd}B2A2 "A"{A}A2 :|
